X:1
T:Will Ye no Come Back Again
M:C
L:1/8
Q:80
C:March
S:
K:HP
[| {Gdc}d2-de{g}f2{Gdc}d2 | \
{g}Bd-d2{G}A4 | \
{ag}a4{GdG}a2f2 |
{gfg}f2e2{A}e4 | \
{Gdc}d2-de{g}f2{Gdc}d2 | \
{g}Bd-d2{G}A4 |
{ag}a4{GdG}a2f2 | \
{gef}e2d2{gdG}d4|] [ | \
{g}f2a2{GdG}a2{g}a2 |
f2a2{GdG}a4 | \
{Gdc}d2-dc{gBd}B2{G}A2 | \
{gf}gf{g}ed{gef}e4 |
{gfg}f4e2{Gdc}d2 | \
{g}Bd-d2{G}A4 | \
a4{GdG}a2f2 |
{gef}e2-ed{gdG}d4|]
